src/components/ProductFeature/images/feature-data-privacy.svg

<svg width="215" height="99" viewBox="0 0 215 99" fill="none" xmlns="http://www.w3.org/2000/svg">
<path d="M121.465 53.7405C103.079 49.6033 90.2705 72.6751 108.026 84.0348C108.279 84.1965 108.583 84.2842 108.883 84.2842H206.563C206.978 84.2842 207.394 84.1117 207.69 83.8202C225.495 66.2911 201.998 50.6847 189.898 55.6227C188.558 56.1693 186.55 55.2832 186.286 53.8609C184.075 41.9732 171.829 34.8394 158.416 42.232C157.575 42.6958 156.501 42.3919 155.985 41.5817C148.114 29.2292 127.73 32.895 123.646 52.3589C123.44 53.3391 122.442 53.9604 121.465 53.7405Z" fill="#3C6D8F"/>
<path fill-rule="evenodd" clip-rule="evenodd" d="M98.7331 11.9084V31.9359H124.174V6.7071e-05C130.751 6.7071e-05 136.082 5.33162 136.082 11.9084V31.9359H142.578V84.4409H77.0816V31.9359H86.8248V11.9084C86.8248 5.33164 92.1563 0.000103149 98.7331 6.70712e-05V0H124.174V11.9084L98.7331 11.9084ZM113.293 59.3863C116.506 58.0335 118.761 54.8559 118.761 51.1516C118.761 46.219 114.762 42.2203 109.83 42.2203C104.897 42.2203 100.898 46.219 100.898 51.1516C100.898 54.9264 103.24 58.1542 106.55 59.4615L103.875 75.5098H116.596L113.293 59.3863Z" fill="#92C2E3"/>
<path d="M21.9329 67.211C3.5468 63.0738 -9.26187 86.1456 8.49408 97.5052C8.74684 97.6669 9.05083 97.7547 9.3509 97.7547H107.03C107.446 97.7547 107.862 97.5822 108.158 97.2907C125.962 79.7616 102.466 64.1551 90.3653 69.0931C89.0258 69.6398 87.018 68.7537 86.7535 67.3313C84.5428 55.4437 72.2968 48.3099 58.8836 55.7025C58.0422 56.1662 56.9683 55.8624 56.4521 55.0522C48.5816 42.6997 28.1978 46.3654 24.1136 65.8294C23.9079 66.8095 22.9099 67.4309 21.9329 67.211Z" fill="#6D9EC0"/>
<path d="M153.405 90.3341L161.185 98.1036H153.405V90.3341ZM153.405 88.3918L163.13 98.1036H170.909L153.405 80.6223V88.3918ZM153.405 78.6799L172.854 98.1036H180.634L153.405 70.9104V78.6799ZM163.13 78.6799L182.579 98.1036V90.3341L163.13 70.9104V78.6799ZM172.854 70.9104V78.6799L182.579 88.3918V80.6223L172.854 70.9104Z" fill="white"/>
<path fill-rule="evenodd" clip-rule="evenodd" d="M194.773 92.7971C196.181 94.2034 198.092 94.9943 200.085 94.9943V98.1021H183.956V81.9944L194.773 92.7971ZM190.18 93.4407C190.18 94.2989 189.483 94.9946 188.624 94.9946C187.765 94.9946 187.068 94.2989 187.068 93.4407C187.068 92.5825 187.765 91.8868 188.624 91.8868C189.483 91.8868 190.18 92.5825 190.18 93.4407Z" fill="white"/>
<path d="M153.403 98.1015H161.183L153.403 90.332V98.1015Z" fill="white"/>
<path d="M163.131 80.6225L153.406 70.9106V78.6801L163.131 88.392V80.6225Z" fill="white"/>
<path d="M153.403 80.6208V88.3903L163.128 98.1022V90.3327L153.403 80.6208Z" fill="white"/>
<path d="M172.854 80.6208L163.129 70.9089V78.6784L172.854 88.3903V80.6208Z" fill="white"/>
<path d="M163.127 98.1015H170.907L163.127 90.332V98.1015Z" fill="white"/>
<path d="M163.127 80.6208V88.3903L172.852 98.1022V90.3327L163.127 80.6208Z" fill="white"/>
</svg>

<svg fill="none" viewBox="0 0 215 99"><path fill="#3C6D8F" d="M121.465 53.74c-18.386-4.137-31.195 18.935-13.439 30.295.253.162.557.25.857.25h97.68a1.63 1.63 0 001.127-.465c17.805-17.529-5.692-33.135-17.792-28.197-1.34.546-3.348-.34-3.612-1.762-2.211-11.888-14.457-19.022-27.87-11.629-.841.464-1.915.16-2.431-.65-7.871-12.353-28.255-8.687-32.339 10.777-.206.98-1.204 1.601-2.181 1.381z"/><path fill="#92C2E3" fill-rule="evenodd" d="M98.733 11.908v20.028h25.441V0c6.577 0 11.908 5.332 11.908 11.908v20.028h6.496V84.44H77.082V31.936h9.743V11.908C86.825 5.332 92.156 0 98.733 0h25.441v11.908h-25.44zm14.56 47.478a8.931 8.931 0 10-6.743.075l-2.675 16.049h12.721l-3.303-16.124z" clip-rule="evenodd"/><path fill="#6D9EC0" d="M21.933 67.211C3.547 63.074-9.262 86.146 8.494 97.505c.253.162.557.25.857.25h97.679c.416 0 .832-.173 1.128-.464 17.804-17.53-5.692-33.136-17.793-28.198-1.34.547-3.347-.34-3.611-1.762-2.211-11.887-14.457-19.021-27.87-11.629-.842.464-1.916.16-2.432-.65-7.87-12.352-28.254-8.687-32.338 10.777-.206.98-1.204 1.602-2.181 1.382z"/><path fill="#fff" d="M153.405 90.334l7.78 7.77h-7.78v-7.77zm0-1.942l9.725 9.712h7.779l-17.504-17.482v7.77zm0-9.712l19.449 19.424h7.78L153.405 70.91v7.77zm9.725 0l19.449 19.424v-7.77L163.13 70.91v7.77zm9.724-7.77v7.77l9.725 9.712v-7.77l-9.725-9.712z"/><path fill="#fff" fill-rule="evenodd" d="M194.773 92.797a7.517 7.517 0 005.312 2.197v3.108h-16.129V81.994l10.817 10.803zm-4.593.644a1.555 1.555 0 01-3.112 0 1.555 1.555 0 013.112 0z" clip-rule="evenodd"/><path fill="#fff" d="M153.403 98.102h7.78l-7.78-7.77v7.77zm9.728-17.48l-9.725-9.711v7.77l9.725 9.711v-7.77zm-9.728-.001v7.77l9.725 9.711v-7.77l-9.725-9.711zm19.451 0l-9.725-9.712v7.77l9.725 9.711v-7.77z"/><path fill="#fff" d="M163.127 98.102h7.78l-7.78-7.77v7.77zm0-17.481v7.77l9.725 9.711v-7.77l-9.725-9.711z"/></svg>
